X:634
T:Round Reel of Eight
T:Mrs. Anderson's Reel
C:Robert Mackintosh
S:Colin Hume's website,  colinhume.com  - chords can also be printed below the stave.
Q:1/2=110
M:2/2
L:1/8
K:G
%%center Play ABAB ABAB ABA, or play ABAB, then Morpeth Rant AABB, then ABA of original.
P:A
d | "G"g2dc BGdB | "Am"cBAG "D7"FD Df | "G"g2dc BGdB | "Am"ce"D7"dc "G"BGGd |
"G"g2dc BGdB | "Am"cBAG "D7"FD Df | "G"g2dc BGdB | "Am"ce"D7"dc "G"BGG ||
P:B
c | "G"BGdB "Am"cAec | "G"BgdB "D7"cAAc | "G"BGdB "Am"cAec | "D7"BdAc "G"BGGc |
"G"BGdB "Am"cAec | "G"BgdB "D7"cAAc | "G"Bdgb "Am"ceag | "D7"fdef "G"gGG |]

